-----BEGIN PGP PUBLIC KEY BLOCK-----
Comment: 5BAD CA26 65EF 59DC F8A2  3D8B 707F 0DB4 8083 6771

xsFNBGfS8QoBEADUfq5anuOgD2ldA12spNYIZ9qLvUCCYl+tHy5xB5at4G9Puruh
68pAjHqDyrcJNfe1gWsjbDldSVmMBwCLWtNsgw1H4V3K/YT0HHPFpgdvnLE93Bzo
Ssx/7HtNGMsLB2aX34X9faCJCvBrUz3pSypAZFLb9z+C5CF5VHpmx+HSvW9Dse8y
qyetGLyHT63dleaph0mp4RsN9PO+J+z6S2E7V3Zq4zt9e5zHiBpNsUn7VCryyUw+
vPg85taCQxUtnIKF/w+vnUpirob7Yqsgns8zecdOL7bWiCQMDYsmRIp9YwbjmOPe
fIaDjFVAv7YFL8nRBIO8Ni6/6m9yrfbKKxAUOMKKIWLgv9uHvz31zsSS6Tsr2sAf
28se7i0pxLGmXeLO6xepZXPMzFVOCutiGO42vwsSGmwnbJNlU+kqyMOHvEmZ7pj1
zbRRckyNopUBXV4x191+ZAmiz6n+SjaO3BAJ2ObEQJPQxE+8XPd7AtPaV1n9KLK9
KOVL3nhmygtfuqutw7H+K6txuVEH5IiIkMBQ5jrGmzh0nt7o516KAS1oWpYuumiN
JzkOqK+B9FBlmoAPz/Eg01MKivR5gYC6TCYKvezdH6kv9RKdGn6teVgK6+muEc17
Ncse9hMLzKaZtlDV3fnxvlReUO0fgWNDPLWV2nCWxtFRUgVRkjAuB0X4WwARAQAB
zTtUYWxvcyAoVGFsb3MsIENpc2NvIFN5c3RlbXMgSW5jLikgPHJlc2VhcmNoQHNv
dXJjZWZpcmUuY29tPsLBlQQTAQIAKAUCZ9LxCgIbAwUJA8JnAAYLCQgHAwIGFQgC
CQoLBBYCAwECHgECF4AAIQkQcH8NtICDZ3EWIQRbrcomZe9Z3PiiPYtwfw20gINn
cROID/44xbMPSDZCTnh9W5Ba+p6UuCcdFDjxRKaH89JttMuV6xmftOO2ee7XvoXU
vRJxHuxtyCFoJQnodF2AOv57sAnPEn6hi0c3Lplk6IoX8KLGfIIitC5pBNaJoXWk
lmO/GmMEmKfzO0cfMcw53+U6RO22XgsAcDsYLGaYMewJ08xeFimUdBvSrGU7taL/
4J7Gj8hF+jy5lrHoC6wwUwEMfp5dYhJ7y52MAiEllFJDs1tnUSCua14sOX84aWKK
/aiEnZb5ih8SX2bNEuokXAI6kHfragRJj3iOJBo5gyQWeiGkxj9p7B2MfGCivwml
hnvjXmjFubvLEpSK4ZRFtdoBntKrtQnVQDwUjkDCuOx+Suq4aKuQSCF8woQQW42G
THhcY/BvxQdAWYdFrkyi5e/2EJH7Lf9PcwyJVCxU1pU7+/nfU8j5Baes9JGOr9d0
z17uglIHw5jxY60K0KHpIdYtFPTbrnfoNuaqod+WZyqUxkUzCHsHEAcvV6hPlc6I
4NAfU9cuwed2oHOFExu/tIf8GmkJdQHeJuG0lfh3N5IUba4gIFXUtP7K7vSSPE1o
6pcy1jpgoWU/pbO3MrMWOudcmZWbKi9oYZySrRzg5irk+MTa1bWXZJo+3BWjXQwS
207U0NuF8wDEQQQxmkuvVrVAtzMC7xvIMP55gNlNPS2vaCphpc7BTQRn0vEKARAA
7EfIzsN5K//SQM2d0WGNjknWLg5jdpthpy/W+FrCEmYFmbiOh+KDja+lV0Halvih
YcROFR1rqAHFqy9EsX5oeZOjeqwjOFct3Alpx2eOifP7XKmUErWX31bBRyk+nApw
XGugWhV2pAy4428BCsBcbRgz9jIuYDtvqWY5DMhVtg6+OfPnQFgydL0tzEQAfiSA
4ggefuSMIbVlVEcl2iRMlt4XbKUvZaiS2ntXkhBfU2aYqh+gyVJxXKr0WhrWCB9V
kbNDfnZkVKmYYxs2sbGFdQnpphlz2ngNuvgpSvVN7l3LIWM6xMj1Ckby7fIuQvq/
jlH87tSuXIfWf2iyYSSVhHv8+u8EEE9RaejGKH86D0SJrFvhNGlFuOFYiW/GJ8D2
3hvDuAJ7UgNQhLop0GzdImVg9Wi9FI3ti1ioEd9hFp/K0OPaFrUDFhkJmnis7ctI
CcRcAj7wntJ6axrg+e8wsts13eIQsFj3DX4eoYGa7KJJn5+kVBCDaDUvpy9it0sy
kNDRP1WYW2PsHgSmXiliQ/pKCJz3nK8LbL7je0uNLilbbgJOu+sIXRsZe6jbfD0b
gM/bUPHEA99SCv7Xhe/rd8Qx9OY980iJKaivqMz/7JAxZSBeugj6LUK0waTBLxsp
FNaylx7f/YbTeD92kgnF3GbSeWkU/6vMU1bg7CohGlcAEQEAAcLBfAQYAQIADwUC
Z9LxCgIbDAUJA8JnAAAhCRBwfw20gINncRYhBFutyiZl71nc+KI9i3B/DbSAg2dx
HI8P/iP3owNyUGvUdyUbZJqZQNZzTe+gjRYcA0SkBulK6PK6UGMbU/FmwZouw4TA
bK+O5eUv42wlSWPEhfC5mgByLtv2F9cItcs9/aFFzH7/quLX/YHUUyrM1fOEYfX8
QcoYfNI9NrITBDAYC4Ac6uEqcvcJXt53i1WP44i4z8wfmMCGgRlzIcgLKLoNNy+S
kFLv2/aCOjgdtQh0+esQdoG4KoUFQf1PWzdH9Mn9mgIgRaeHvU1Fz2TY+540zjFI
FIcm1Oev33p8qI+SgliPo3nFk6aah36fj8QNDeGuQr1iMVnzeByZuuNacdAtU59a
yiUPSbbxz7o6436ds158/2CFE10Xd04qnhmInfb/j9nTzLlMquCBeR8+/6fk0TLY
EI+utWuXo34hPMQhnRDSDjLPDwXr5QcRCtsA0wqXt0SlfriVBdOPvXOs7MPURPmB
FpOg14HhmpE1h/zHwYKUHQLRK4Wm42MiErkRldVdO4Cxg2ItWkN6YLDIsOmRRYPD
HXItb+iK1v9n1PM/8dB2lHB/aAPCZVg0pa8oXbHaSWe4dIcEyu8h5kP8NCxf50LL
QrZloFNN8XmmxzAghcp5qhxXNdhTUJIu/GuhIcsKvoRrxQjq5jDydw8ErKDDzRmj
UDgX9Be2BeHJwibidCfxP9C/SyxmScY2c8/9WZNVftyUs7th
=XYxt
-----END PGP PUBLIC KEY BLOCK-----
